css/images/icon-notes.svg

<svg width="16" height="16" fill="none" xmlns="http://www.w3.org/2000/svg"><path fill-rule="evenodd" clip-rule="evenodd" d="M9.586 2H3v13h10V5.414L9.586 2ZM10 1H2v15h12V5l-4-4Z" fill="#000"/><path fill-rule="evenodd" clip-rule="evenodd" d="M8 4H4V3h4v1ZM8 6H4V5h4v1ZM12 8H4V7h8v1ZM12 10H4V9h8v1ZM8 12H4v-1h4v1ZM8 14H4v-1h4v1ZM11 12h-1v1h1v-1Zm-2-1v3h3v-3H9ZM9 6V2h1v4H9ZM13 6h-3V5h3v1Z" fill="#000"/></svg>

<svg width="16" height="16" viewBox="0 0 16 16" fill="none" xmlns="http://www.w3.org/2000/svg">
<path fill-rule="evenodd" clip-rule="evenodd" d="M9.58579 2H3V15H13V5.41421L9.58579 2ZM10 1H2V16H14V5L10 1Z" fill="black"/>
<path fill-rule="evenodd" clip-rule="evenodd" d="M8 4H4V3H8V4Z" fill="black"/>
<path fill-rule="evenodd" clip-rule="evenodd" d="M8 6H4V5H8V6Z" fill="black"/>
<path fill-rule="evenodd" clip-rule="evenodd" d="M12 8H4V7H12V8Z" fill="black"/>
<path fill-rule="evenodd" clip-rule="evenodd" d="M12 10H4V9H12V10Z" fill="black"/>
<path fill-rule="evenodd" clip-rule="evenodd" d="M8 12H4V11H8V12Z" fill="black"/>
<path fill-rule="evenodd" clip-rule="evenodd" d="M8 14H4V13H8V14Z" fill="black"/>
<path fill-rule="evenodd" clip-rule="evenodd" d="M11 12H10V13H11V12ZM9 11V14H12V11H9Z" fill="black"/>
<path fill-rule="evenodd" clip-rule="evenodd" d="M9 6V2H10V6H9Z" fill="black"/>
<path fill-rule="evenodd" clip-rule="evenodd" d="M13 6H10V5H13V6Z" fill="black"/>
</svg>
